Yaru++/status/16/bluetooth-disabled.svg

<svg height="16" width="16" xmlns="http://www.w3.org/2000/svg">
  <path d="m5.662 0c-.838.01-1.45-.02-1.953.258-.25.138-.45.371-.56.664-.11.292-.149.64-.149 1.078v12c0 .438.039.786.149 1.078.11.293.31.528.56.666.502.277 1.115.246 1.953.256h5.676c.839-.01 1.451.021 1.953-.256a1.25 1.25 0 0 0 .56-.666c.11-.292.15-.64.15-1.078v-12c0-.438-.04-.786-.15-1.078a1.253 1.253 0 0 0 -.56-.664c-.502-.277-1.114-.248-1.953-.258h-5.674zm2.338 1.303 4.24 4.238-2.939 2.469 2.94 2.469-4.24 4.238v-5.613l-2.429 2.039-.644-.766 2.818-2.367-2.818-2.367.644-.766 2.428 2.039zm1 2.414v3.24l1.76-1.48zm0 5.345v3.24l1.76-1.759z" fill="#808080" opacity=".5"/>
</svg>

<svg height="16" width="16" xmlns="http://www.w3.org/2000/svg">
    <path d="M5.662 0c-.838.01-1.45-.02-1.953.258-.25.138-.45.371-.56.664C3.039 1.214 3 1.562 3 2v12c0 .438.039.786.149 1.078.11.293.31.528.56.666.502.277 1.115.246 1.953.256h5.676c.839-.01 1.451.021 1.953-.256a1.25 1.25 0 0 0 .56-.666c.11-.292.15-.64.15-1.078V2c0-.438-.04-.786-.15-1.078a1.253 1.253 0 0 0-.56-.664C12.789-.019 12.177.01 11.338 0H5.664zM8 1.303l4.24 4.238L9.301 8.01l2.94 2.469-4.24 4.238V9.104l-2.429 2.039-.644-.766L7.746 8.01 4.928 5.643l.644-.766L8 6.916zm1 2.414v3.24l1.76-1.48zm0 5.345v3.24l1.76-1.759z" fill="gray" font-family="sans-serif" font-weight="400" opacity=".5" overflow="visible" style="line-height:normal;text-indent:0;text-align:start;text-decoration-line:none;text-decoration-style:solid;text-decoration-color:#000;text-transform:none;shape-padding:0;isolation:auto;mix-blend-mode:normal;marker:none" white-space="normal" color="#000"/>
</svg>
